64x64/apps/mx-tools.svg

<svg xmlns="http://www.w3.org/2000/svg" width="64" height="64"><rect style="opacity:.2" width="56" height="56" x="4" y="5" rx="2.8" ry="2.8"/><rect style="fill:#318e9e" width="56" height="56" x="4" y="4" rx="2.8" ry="2.8"/><path style="fill:#f4f4f7;opacity:.1" d="M6.8 4C5.25 4 4 5.25 4 6.8v1C4 6.25 5.25 5 6.8 5h50.4C58.75 5 60 6.25 60 7.8v-1C60 5.25 58.75 4 57.2 4z"/><path style="opacity:.2" d="M20 13c-.873 0-1.74.15-2.566.434L23 19v5h-5l-5.568-5.568A7.983 7.983 0 0 0 12 21a8 8 0 0 0 8 8 8.007 8.007 0 0 0 2.17-.309l6.871 7.731-2.23 2.623L24 36 9 53h44L43 41l-1.158 1.322-7.215-8.117 8.607-10.127L49 26v2l2 2 6-6-2-2h-3v-2l-6-5H36s4.913.194 6 2l-.865 5.195-8.401 9.881-6.002-6.754A8 8 0 0 0 20 13zm10.934 25.551 7.16 8.054L36 49l-7.262-7.867z"/><path style="fill:#f4f4f7" d="M20 12c-.873 0-1.74.15-2.566.434L23 18v5h-5l-5.568-5.568A7.983 7.983 0 0 0 12 20a8 8 0 0 0 8 8 8.007 8.007 0 0 0 2.17-.309l6.871 7.731-2.23 2.623L24 35 9 52h44L43 40l-1.158 1.322-7.215-8.117 8.607-10.127L49 25v2l2 2 6-6-2-2h-3v-2l-6-5H36s4.913.194 6 2l-.865 5.195-8.401 9.881-6.002-6.754A8 8 0 0 0 20 12zm10.934 25.551 7.16 8.054L36 48l-7.262-7.867z"/></svg>

<svg xmlns="http://www.w3.org/2000/svg" width="64" height="64" version="1.1">
 <rect style="opacity:0.2" width="56" height="56" x="4" y="5" rx="2.8" ry="2.8"/>
 <rect style="fill:#318e9e" width="56" height="56" x="4" y="4" rx="2.8" ry="2.8"/>
 <path style="fill:#f4f4f7;opacity:0.1" d="M 6.8007812,4 C 5.2495813,4 4,5.2495813 4,6.8007812 v 1 C 4,6.2495813 5.2495813,5 6.8007812,5 H 57.199219 C 58.750419,5 60,6.2495813 60,7.8007812 v -1 C 60,5.2495813 58.750419,4 57.199219,4 Z"/>
 <path style="opacity:0.2" d="M 20,13 C 19.127,13 18.26,13.15 17.434,13.434 L 23,19 V 24 H 18 L 12.432,18.432 C 12.148,19.258 12.003,20.126 12,21 12,25.418 15.582,29 20,29 20.734,28.997 21.464,28.893 22.17,28.691 L 29.041,36.422 26.811,39.045 24,36 9,53 H 53 L 43,41 41.842,42.322 34.627,34.205 43.234,24.078 49,26 V 28 L 51,30 57,24 55,22 H 52 V 20 L 46,15 H 36 C 36,15 40.913,15.194 42,17 L 41.135,22.195 32.734,32.076 26.732,25.322 C 27.56,24.033 28,22.532 28,21 28,16.582 24.418,13 20,13 Z M 30.934,38.551 38.094,46.605 36,49 28.738,41.133 Z"/>
 <path style="fill:#f4f4f7" d="M 20,12 C 19.127,12 18.26,12.15 17.434,12.434 L 23,18 V 23 H 18 L 12.432,17.432 C 12.148,18.258 12.003,19.126 12,20 12,24.418 15.582,28 20,28 20.734,27.997 21.464,27.893 22.17,27.691 L 29.041,35.422 26.811,38.045 24,35 9,52 H 53 L 43,40 41.842,41.322 34.627,33.205 43.234,23.078 49,25 V 27 L 51,29 57,23 55,21 H 52 V 19 L 46,14 H 36 C 36,14 40.913,14.194 42,16 L 41.135,21.195 32.734,31.076 26.732,24.322 C 27.56,23.033 28,21.532 28,20 28,15.582 24.418,12 20,12 Z M 30.934,37.551 38.094,45.605 36,48 28.738,40.133 Z"/>
</svg>
